X: 7
T: Arthur Darley's
R: jig
M: 6/8
L: 1/8
K: Amix
|: A3 AGF | EDC D2A | d2e fgf |edc d2 A |
d2e fgf | edc d2A | BAG FED |EDC DA,B, CDE|
Ddd Dee | Dff Dgg | fed edc |[1 d2d dcB :| [2 d2d d=c_B ||
K:Dm
|: A2f fef | A2f fef | Aff Agg | Aaa Abb |
A2f fef | A2f feg | fed ed^c |[1 d2d dcB :|[2 d3 d2e ||
K:D
|: fgf edc | d2A BAG | FED EDC | DA,B, CDE |
Ddd Dee | Dff Dgg | fed edc | [1 d3 d2e :| [2 d3 dcB||


Tune 417	Setting 13270

